X: 30701
T: TRIP TO IRELAND
O: Irish Melody
%R: jig
B: Elias Howe "The Musician's Companion" Part 3 1844 p.70 #1
S: http://imslp.org/wiki/The_Musician's_Companion_(Howe,_Elias)
Z: 2015 John Chambers <jc:trillian.mit.edu>
N: The book has the key of D, but this is obviously wrong.  (Fixed.)
M: 6/8
L: 1/8
K: G
% - - - - - - - - - - - - - - - - - - - - - - - - -
A |\
ded dBG | Bdd def | gfe dcB | cAA A3 |\
ded dBG | Bdd def | gfg ABc | BGG G2 :|
|: d |\
(gf)g (ag)a | (ba)g (fe)d | (gf)e (dc)B | cAA A2d |\
(gf)g (ag)a | (ba)g (fe)d | (gf)g ABc | BGG G2 :|
% - - - - - - - - - - - - - - - - - - - - - - - - -
